X:472
T:House by the Lake
C:Amy Cann
L:1/4
M:3/4
R:Waltz
%%MIDI beat 100 95 80
%%MIDI program 68     Oboe
%%MIDI chordprog 46   Orchestral Harp
%%MIDI bassprog 46    Orchestral Harp
S:Colin Hume's website,  colinhume.com  - chords can also be printed below the stave.
Q:1/4=116
K:G
P:A
|: "G"D/d/dc/d/ | "/F#"BA/B/G | "/E"D/d/dc/d/ | "/D"BA/B/G |\
"C"GG/A/B | "G/B"GG/A/B |1 "Am"cdB | "Dsus"A2- "D"A :|2 "Am"GE"D7"F | "Gsus"G2- "G"G |
P:B
"C"G/g/gf/g/ | "/"fe3/G/ | "G/B"G/g/gf/g/ | "G"d2G | "C"G/g/gf/g/ | "/"fed | "Bm"edB | "E7"d2B |
P:C
"Am"cc/d/e | "G/B"dd/e/f | "C"gec | "/"AGE | "G/D"D/d/dc/d/ | "/"BA/B/G | "C/D"GE"D7"F | "Gsus"G- "G"G |]

